incomeartour/img/icons/mask.svg

<svg width="40" height="19" viewBox="0 0 40 19" fill="none" xmlns="http://www.w3.org/2000/svg">
<path opacity="0.9" d="M38.4674 1.60296C38.119 1.50576 37.7464 1.65156 37.5601 1.96748C37.0093 2.87471 35.5512 3.87914 34.5468 4.47855C34.3119 3.77383 34.0203 2.61549 33.8097 1.61917C33.7449 1.27893 33.4614 1.01971 33.1131 0.97922C32.7648 0.946836 32.4326 1.13313 32.2868 1.44905C31.1123 4.03305 26.6247 4.22745 25.272 4.22745C24.867 4.22745 24.6078 4.21123 24.5186 4.21123C21.9913 4.28415 20.4604 5.4506 19.618 6.64132C18.7755 5.4506 17.2284 4.28415 14.6444 4.21123C14.6363 4.21123 14.3771 4.22745 13.9721 4.22745C12.6193 4.22745 8.13174 4.03305 6.95719 1.44905C6.8195 1.14934 6.51168 0.954944 6.19576 0.97922C5.86367 0.987328 5.57207 1.19794 5.45865 1.50576C5.22376 2.14566 4.78632 3.37692 4.50283 4.36514C3.51456 3.75761 2.20232 2.818 1.68389 1.96748C1.4976 1.65156 1.12497 1.50576 0.77666 1.60296C0.420245 1.70016 0.177246 2.01608 0.177246 2.38055C0.177246 2.55879 0.201571 6.76284 2.01603 11.0155C3.19058 13.7453 5.12651 15.9567 7.49184 17.2365C7.88874 17.4552 8.50437 17.7468 9.30629 17.9817C10.1001 18.2247 11.0722 18.403 12.1819 18.403C14.2718 18.403 17.1798 17.7387 19.618 14.7335C22.0643 17.7387 24.9722 18.403 27.0621 18.403C29.2816 18.403 30.9503 17.6739 31.7522 17.2365C34.1094 15.9567 36.0535 13.7453 37.228 11.0155C39.0425 6.76284 39.0587 2.55879 39.0587 2.38055C39.0587 2.01608 38.8157 1.70016 38.4674 1.60296ZM16.9935 12.028C15.7217 12.919 14.2313 13.3889 12.6841 13.3889C10.2297 13.3889 7.92923 12.19 6.51979 10.1811C6.26868 9.81667 6.35778 9.30635 6.7223 9.05524C7.99405 8.16418 9.48448 7.6944 11.0317 7.6944C13.4779 7.6944 15.7865 8.89322 17.1879 10.9021C17.3175 11.0722 17.3661 11.2909 17.3256 11.5015C17.2851 11.7202 17.1717 11.9065 16.9935 12.028ZM32.7161 10.1811C31.3148 12.19 29.0062 13.3889 26.5599 13.3889C25.0128 13.3889 23.5223 12.919 22.2505 12.028C22.0724 11.9065 21.9508 11.7202 21.9185 11.5015C21.878 11.2909 21.9266 11.0722 22.048 10.9021C23.4575 8.89322 25.758 7.6944 28.2124 7.6944C29.7595 7.6944 31.25 8.16418 32.5217 9.05524C32.7 9.17671 32.8134 9.36305 32.8539 9.57362C32.8943 9.78424 32.8457 10.003 32.7161 10.1811Z" fill="black"/>
</svg>

<svg width="40" height="19" fill="none" xmlns="http://www.w3.org/2000/svg"><path opacity=".9" d="M38.467 1.603a.801.801 0 00-.907.364c-.55.908-2.009 1.912-3.013 2.512-.235-.705-.527-1.864-.737-2.86a.8.8 0 00-.697-.64.823.823 0 00-.826.47c-1.175 2.584-5.662 2.778-7.015 2.778-.405 0-.664-.016-.753-.016-2.528.073-4.059 1.24-4.901 2.43-.842-1.19-2.39-2.357-4.974-2.43-.008 0-.267.016-.672.016-1.353 0-5.84-.194-7.015-2.778a.792.792 0 00-.761-.47.807.807 0 00-.737.527c-.235.64-.673 1.87-.956 2.86-.988-.608-2.3-1.548-2.82-2.399a.801.801 0 00-.906-.364.805.805 0 00-.6.778c0 .178.025 4.382 1.839 8.634 1.175 2.73 3.11 4.942 5.476 6.221.397.22 1.012.51 1.814.746a9.84 9.84 0 002.876.421c2.09 0 4.998-.664 7.436-3.67 2.446 3.006 5.354 3.67 7.444 3.67 2.22 0 3.888-.73 4.69-1.166 2.357-1.28 4.302-3.492 5.476-6.221 1.814-4.253 1.83-8.457 1.83-8.635a.807.807 0 00-.59-.778zM16.994 12.028a7.475 7.475 0 01-4.31 1.36 7.533 7.533 0 01-6.164-3.207.814.814 0 01.202-1.126 7.474 7.474 0 014.31-1.36 7.518 7.518 0 016.156 3.207c.13.17.178.389.138.6a.799.799 0 01-.332.526zm15.722-1.847a7.518 7.518 0 01-6.156 3.208 7.475 7.475 0 01-4.31-1.361.77.77 0 01-.331-.527.783.783 0 01.129-.599 7.533 7.533 0 016.164-3.208c1.547 0 3.038.47 4.31 1.361a.8.8 0 01.194 1.126z" fill="#000"/></svg>
